X: 825
P: Longways for as many as will
M: C|
L: 1/8
K: Gm
|:\
^F2 D2 G2 d2 | (cB) (AG) g2 G2 | A2 ^F2 G4 :|\
d3 e f2 d2 | c3 B A2 B2 | c2 A2 ^F2 D2 |
d3 e f2 d2 | c2 B2 g4 | g2 ^f2 g4 |\
d3 e f2 d2 | c3 B A2 B2 | G2 A2 ^F2 D2 |\
d3 e d2 (cB) | (AB) (cA) d2 G2 | A2 ^F2 G4 |]

